icons/whereby.svg

<svg xmlns="http://www.w3.org/2000/svg" viewBox="0 0 48 48"><defs><style>.a{fill:none;stroke:#fff;stroke-linecap:round;stroke-linejoin:round;}</style></defs><path class="a" d="M4.9,10.1v0Zm13.3,30H16.6S8.7,15,6.5,11.3c-.3-.5-1.2-1.1-1.6-1m0-.2H21.6c.9,0,2.1-.2,2.1-.6h.1l.4,1.3m.1,0L27.9,21m.7,2,4.3,12.2m-1.3,4.9H30L25.7,27.6M25,25.9l-.1-.4-2.7-7.8c-5.5-14.2-9.3-1.5-8.2,1.9l5.5,15.6m.6,1.8-1.9,3.1m1.3-4.9,5.6-9.3M27.9,21c0-.1.1-.1.1-.2m0,0a36.2,36.2,0,0,1,6.3-8.4C40,6.4,49.2,8.5,40,26.5h0L33.5,37l-1.9,3.1m1.3-4.9,3.4-5.6c6.8-9.1,5.8-26.2-6.1-9.3L28.6,23m-2.8,4.7L20.1,37"/></svg>

<?xml version="1.0" encoding="utf-8"?>
<!-- Generator: Adobe Illustrator 25.1.0, SVG Export Plug-In . SVG Version: 6.00 Build 0)  -->
<svg version="1.1"
	 id="svg8" inkscape:version="1.0.1 (3bc2e813f5, 2020-09-07, custom)" xmlns:cc="http://creativecommons.org/ns#" xmlns:dc="http://purl.org/dc/elements/1.1/" xmlns:inkscape="http://www.inkscape.org/namespaces/inkscape" xmlns:rdf="http://www.w3.org/1999/02/22-rdf-syntax-ns#" xmlns:sodipodi="http://sodipodi.sourceforge.net/DTD/sodipodi-0.dtd" xmlns:svg="http://www.w3.org/2000/svg"
	 xmlns="http://www.w3.org/2000/svg" xmlns:xlink="http://www.w3.org/1999/xlink" x="0px" y="0px" viewBox="0 0 48 48"
	 style="enable-background:new 0 0 48 48;" xml:space="preserve">
<style type="text/css">
	.st0{fill:none;stroke:#FFFFFF;stroke-linecap:round;stroke-linejoin:round;}
</style>
<sodipodi:namedview  bordercolor="#666666" borderopacity="1" gridtolerance="10" guidetolerance="10" id="namedview10" inkscape:current-layer="svg8" inkscape:cx="31.356406" inkscape:cy="26.097219" inkscape:pageopacity="0" inkscape:pageshadow="2" inkscape:snap-intersection-paths="true" inkscape:window-height="1060" inkscape:window-maximized="0" inkscape:window-width="1918" inkscape:window-x="0" inkscape:window-y="18" inkscape:zoom="16" objecttolerance="10" pagecolor="#ffffff" showgrid="false">
	</sodipodi:namedview>
<g id="text839">
</g>
<path id="path908" sodipodi:nodetypes="ccccccccccccccccccccccccccccccccccccccccccccc" class="st0" d="M4.9,10.1l0,0.2L4.9,10.1z
	 M18.2,40.1l-1.6,0c0,0-7.9-25.1-10.1-28.8c-0.3-0.5-1.2-1.1-1.6-1 M4.9,10.1h16.7c0.9,0,2.1-0.2,2.1-0.6l0.1,0l0.4,1.3 M24.3,10.8
	L27.9,21 M28.6,23l4.3,12.2 M31.6,40.1H30l-4.3-12.5 M25,25.9l-0.1-0.4l-2.7-7.8c-5.5-14.2-9.3-1.5-8.2,1.9l5.5,15.6 M20.1,37
	l-1.9,3.1 M19.5,35.2l5.6-9.3 M27.9,21c0-0.1,0.1-0.1,0.1-0.2 M28,20.8c1.7-3.2,4-6.1,6.3-8.4C40,6.4,49.2,8.5,40,26.5h0L33.5,37
	l-1.9,3.1 M32.9,35.2l3.4-5.6c6.8-9.1,5.8-26.2-6.1-9.3L28.6,23 M25.8,27.7L20.1,37"/>
</svg>
